X:6592
T:Greetings to Ireland Reel
M:4/4
L:1/8
K:G
D2|G2 BA BGGB|ABcd edcB|A2 AB cBAG|FGAG FDEF|
G2 BA BGGB|A2 cB cAAB|cdef gfge|dB (3cBA G2:|
|:d2|dgfg fgaf|gfge d2 ef|gfge dBcA|BGAG FDEF|
G2 BA BGGB|A2 cB cAAB|cdef gfge|dB (3cBA G2:|
